icons/trash-alt.svg

<svg fill="none" stroke="currentColor" stroke-linecap="round" stroke-linejoin="round" stroke-width="1.5" viewBox="0 0 24 24"><path d="M19.228 5.79q.512.078 1.022.166m-1.022-.165L18.16 19.673a2.26 2.26 0 0 1-2.244 2.077H8.084a2.26 2.26 0 0 1-2.244-2.077L4.772 5.79m14.456 0a48 48 0 0 0-3.478-.397m-12 .562q.51-.088 1.022-.165m0 0a48 48 0 0 1 3.478-.397m7.5 0v-.916c0-1.18-.91-2.164-2.09-2.201a53 53 0 0 0-3.32 0c-1.18.037-2.09 1.022-2.09 2.201v.916m7.5 0a49 49 0 0 0-7.5 0m5.871 5.554L9.878 15.19m4.243 0-4.243-4.243"/></svg>

<svg width="24" height="24" xmlns="http://www.w3.org/2000/svg" clip-rule="evenodd" viewBox="0 0 24 24"><title>trash alt</title><g stroke-linejoin="round" class="nc-icon-wrapper" fill="#ffffff" stroke-linecap="round" fill-rule="evenodd"><path d="M19.228,5.79C19.57,5.842 19.91,5.897 20.25,5.956M19.228,5.791L18.16,19.673C18.07,20.839 17.085,21.75 15.916,21.75L8.084,21.75C6.915,21.75 5.93,20.839 5.84,19.673L4.772,5.79M19.228,5.79C18.074,5.616 16.914,5.483 15.75,5.393M3.75,5.955C4.09,5.896 4.43,5.841 4.772,5.79M4.772,5.79C5.926,5.616 7.086,5.483 8.25,5.393M15.75,5.393L15.75,4.477C15.75,3.297 14.84,2.313 13.66,2.276C12.554,2.241 11.446,2.241 10.34,2.276C9.16,2.313 8.25,3.298 8.25,4.477L8.25,5.393M15.75,5.393C13.254,5.2 10.746,5.2 8.25,5.393" fill="none" fill-rule="nonzero" stroke="#ffffff" stroke-width="1.5"></path><path d="M12,9L12,15M15,12L9,12" fill="none" fill-rule="nonzero" stroke="#ffffff" stroke-width="1.5" transform="rotate(45 10.71 12.534)"></path></g></svg>
